X: 16252
T: Gallaway Tom
%R: jig
B: James Oswald "The Caledonian Pocket Companion" v.1 b.6 p.25 #2
S: https://ia800501.us.archive.org/18/items/caledonianpocket01rugg/caledonianpocket01rugg_bw.pdf
Z: 2020 John Chambers <jc:trillian.mit.edu>
M: 6/8
L: 1/8
K: C
"_Brisk"G |\
c>de ede | cAA A2G | c>de edc | gdd d2e |\
c>de ede | cAA A2c | GAG AGA | cde d2 :|
|: e |\
gag ede | cAA A2(e/f/) | gec gec | edd d2g |\
eag ede | cAG A2c | G2G AGA | cde d2 :|


